data/images/2G-5M.svg

<?xml version="1.0" encoding="UTF-8"?>
<svg xmlns="http://www.w3.org/2000/svg" xmlns:xlink="http://www.w3.org/1999/xlink" width="265pt" height="37pt" viewBox="0 0 265 37" version="1.1">
<defs>
<g>
<symbol overflow="visible" id="glyph0-0">
<path style="stroke:none;" d=""/>
</symbol>
<symbol overflow="visible" id="glyph0-1">
<path style="stroke:none;" d="M 6.109375 0 L 6.109375 -6.921875 L 5.21875 -6.921875 L 5.21875 -3.890625 L 1.828125 -3.890625 L 1.828125 -6.921875 L 0.9375 -6.921875 L 0.9375 0 L 1.828125 0 L 1.828125 -3.296875 L 5.21875 -3.296875 L 5.21875 0 Z M 6.109375 0 "/>
</symbol>
<symbol overflow="visible" id="glyph0-2">
<path style="stroke:none;" d="M 6.765625 -3.4375 C 6.765625 -5.53125 5.328125 -7.140625 3.671875 -7.140625 C 1.96875 -7.140625 0.5625 -5.515625 0.5625 -3.4375 C 0.5625 -1.328125 2.03125 0.21875 3.65625 0.21875 C 5.328125 0.21875 6.765625 -1.34375 6.765625 -3.4375 Z M 5.875 -3.59375 C 5.875 -1.640625 4.8125 -0.421875 3.671875 -0.421875 C 2.5 -0.421875 1.453125 -1.671875 1.453125 -3.59375 C 1.453125 -5.40625 2.546875 -6.5 3.65625 -6.5 C 4.8125 -6.5 5.875 -5.375 5.875 -3.59375 Z M 5.875 -3.59375 "/>
</symbol>
<symbol overflow="visible" id="glyph1-0">
<path style="stroke:none;" d=""/>
</symbol>
<symbol overflow="visible" id="glyph1-1">
<path style="stroke:none;" d="M 7.1875 -2.5 C 7.1875 -2.6875 7 -2.6875 6.859375 -2.6875 L 4.078125 -2.6875 L 4.078125 -5.484375 C 4.078125 -5.625 4.078125 -5.8125 3.875 -5.8125 C 3.671875 -5.8125 3.671875 -5.625 3.671875 -5.484375 L 3.671875 -2.6875 L 0.890625 -2.6875 C 0.75 -2.6875 0.5625 -2.6875 0.5625 -2.5 C 0.5625 -2.296875 0.75 -2.296875 0.890625 -2.296875 L 3.671875 -2.296875 L 3.671875 0.5 C 3.671875 0.640625 3.671875 0.828125 3.875 0.828125 C 4.078125 0.828125 4.078125 0.640625 4.078125 0.5 L 4.078125 -2.296875 L 6.859375 -2.296875 C 7 -2.296875 7.1875 -2.296875 7.1875 -2.5 Z M 7.1875 -2.5 "/>
</symbol>
<symbol overflow="visible" id="glyph2-0">
<path style="stroke:none;" d=""/>
</symbol>
<symbol overflow="visible" id="glyph2-1">
<path style="stroke:none;" d="M 5.609375 -1.734375 C 5.609375 -1.921875 5.453125 -1.921875 5.359375 -1.921875 L 3.21875 -1.921875 L 3.21875 -4.0625 C 3.21875 -4.140625 3.21875 -4.3125 3.0625 -4.3125 C 2.890625 -4.3125 2.890625 -4.15625 2.890625 -4.0625 L 2.890625 -1.921875 L 0.75 -1.921875 C 0.65625 -1.921875 0.484375 -1.921875 0.484375 -1.75 C 0.484375 -1.578125 0.640625 -1.578125 0.75 -1.578125 L 2.890625 -1.578125 L 2.890625 0.5625 C 2.890625 0.65625 2.890625 0.828125 3.046875 0.828125 C 3.21875 0.828125 3.21875 0.65625 3.21875 0.5625 L 3.21875 -1.578125 L 5.359375 -1.578125 C 5.453125 -1.578125 5.609375 -1.578125 5.609375 -1.734375 Z M 5.609375 -1.734375 "/>
</symbol>
<symbol overflow="visible" id="glyph3-0">
<path style="stroke:none;" d=""/>
</symbol>
<symbol overflow="visible" id="glyph3-1">
<path style="stroke:none;" d="M 5.46875 -1.734375 C 5.46875 -1.921875 5.296875 -1.921875 5.203125 -1.921875 L 1.015625 -1.921875 C 0.90625 -1.921875 0.75 -1.921875 0.75 -1.734375 C 0.75 -1.578125 0.921875 -1.578125 1.015625 -1.578125 L 5.203125 -1.578125 C 5.296875 -1.578125 5.46875 -1.578125 5.46875 -1.734375 Z M 5.46875 -1.734375 "/>
</symbol>
</g>
</defs>
<g id="surface1">
<g style="fill:rgb(0%,0%,0%);fill-opacity:1;">
  <use xlink:href="#glyph0-1" x="-0.57" y="29.053"/>
</g>
<g style="fill:rgb(0%,0%,0%);fill-opacity:1;">
  <use xlink:href="#glyph0-2" x="18.907" y="17.728"/>
</g>
<path style="fill-rule:nonzero;fill:rgb(0%,0%,0%);fill-opacity:1;stroke-width:0.3985;stroke-linecap:butt;stroke-linejoin:miter;stroke:rgb(0%,0%,0%);stroke-opacity:1;stroke-miterlimit:10;" d="M 0.601906 -0.602969 C 0.351906 -0.852969 0.351906 -1.259219 0.601906 -1.513125 C 0.851906 -1.763125 1.262062 -1.763125 1.512062 -1.513125 C 1.762062 -1.259219 1.762062 -0.852969 1.512062 -0.602969 C 1.262062 -0.349062 0.851906 -0.349062 0.601906 -0.602969 Z M -1.511375 1.510313 C -1.761375 1.260313 -1.761375 0.854063 -1.511375 0.600156 C -1.261375 0.350156 -0.851219 0.350156 -0.601219 0.600156 C -0.351219 0.854063 -0.351219 1.260313 -0.601219 1.510313 C -0.851219 1.764219 -1.261375 1.764219 -1.511375 1.510313 Z M -1.511375 1.510313 " transform="matrix(1,0,0,-1,27.527,9.315)"/>
<path style="fill-rule:nonzero;fill:rgb(0%,0%,0%);fill-opacity:1;stroke-width:0.3985;stroke-linecap:butt;stroke-linejoin:miter;stroke:rgb(0%,0%,0%);stroke-opacity:1;stroke-miterlimit:10;" d="M 0.601656 0.600156 C 0.851656 0.350156 1.261812 0.350156 1.511812 0.600156 C 1.761812 0.854063 1.761812 1.260313 1.511812 1.510313 C 1.261812 1.764219 0.851656 1.764219 0.601656 1.510313 C 0.351656 1.260313 0.351656 0.854063 0.601656 0.600156 Z M -1.511625 -1.513125 C -1.261625 -1.763125 -0.851469 -1.763125 -0.601469 -1.513125 C -0.351469 -1.259219 -0.351469 -0.852969 -0.601469 -0.602969 C -0.851469 -0.349062 -1.261625 -0.349062 -1.511625 -0.602969 C -1.761625 -0.852969 -1.761625 -1.259219 -1.511625 -1.513125 Z M -1.511625 -1.513125 " transform="matrix(1,0,0,-1,17.621,9.315)"/>
<path style="fill:none;stroke-width:0.59758;stroke-linecap:round;stroke-linejoin:miter;stroke:rgb(0%,0%,0%);stroke-opacity:1;stroke-miterlimit:10;" d="M 4.909187 6.291281 L 14.569344 11.873313 " transform="matrix(1,0,0,-1,2.958,29.053)"/>
<g style="fill:rgb(0%,0%,0%);fill-opacity:1;">
  <use xlink:href="#glyph0-1" x="38.662" y="29.053"/>
</g>
<path style="fill:none;stroke-width:0.59758;stroke-linecap:round;stroke-linejoin:miter;stroke:rgb(0%,0%,0%);stroke-opacity:1;stroke-miterlimit:10;" d="M 24.663094 11.869406 L 34.32325 6.291281 " transform="matrix(1,0,0,-1,2.958,29.053)"/>
<g style="fill:rgb(0%,0%,0%);fill-opacity:1;">
  <use xlink:href="#glyph1-1" x="57.674" y="22.422"/>
</g>
<g style="fill:rgb(86.274719%,20.783997%,27.059937%);fill-opacity:1;">
  <use xlink:href="#glyph0-1" x="77.378" y="29.053"/>
</g>
<g style="fill:rgb(0%,0%,0%);fill-opacity:1;">
  <use xlink:href="#glyph0-2" x="96.856" y="17.728"/>
</g>
<path style="fill-rule:nonzero;fill:rgb(0%,0%,0%);fill-opacity:1;stroke-width:0.3985;stroke-linecap:butt;stroke-linejoin:miter;stroke:rgb(0%,0%,0%);stroke-opacity:1;stroke-miterlimit:10;" d="M 0.603125 -0.602969 C 0.349219 -0.852969 0.349219 -1.259219 0.603125 -1.513125 C 0.853125 -1.763125 1.259375 -1.763125 1.513281 -1.513125 C 1.763281 -1.259219 1.763281 -0.852969 1.513281 -0.602969 C 1.259375 -0.349062 0.853125 -0.349062 0.603125 -0.602969 Z M -1.510156 1.510313 C -1.764063 1.260313 -1.764063 0.854063 -1.510156 0.600156 C -1.260156 0.350156 -0.853906 0.350156 -0.6 0.600156 C -0.35 0.854063 -0.35 1.260313 -0.6 1.510313 C -0.853906 1.764219 -1.260156 1.764219 -1.510156 1.510313 Z M -1.510156 1.510313 " transform="matrix(1,0,0,-1,105.475,9.315)"/>
<path style="fill-rule:nonzero;fill:rgb(0%,0%,0%);fill-opacity:1;stroke-width:0.3985;stroke-linecap:butt;stroke-linejoin:miter;stroke:rgb(0%,0%,0%);stroke-opacity:1;stroke-miterlimit:10;" d="M 0.602875 0.600156 C 0.852875 0.350156 1.259125 0.350156 1.513031 0.600156 C 1.763031 0.854063 1.763031 1.260313 1.513031 1.510313 C 1.259125 1.764219 0.852875 1.764219 0.602875 1.510313 C 0.348969 1.260313 0.348969 0.854063 0.602875 0.600156 Z M -1.510406 -1.513125 C -1.260406 -1.763125 -0.854156 -1.763125 -0.60025 -1.513125 C -0.35025 -1.259219 -0.35025 -0.852969 -0.60025 -0.602969 C -0.854156 -0.349062 -1.260406 -0.349062 -1.510406 -0.602969 C -1.764313 -0.852969 -1.764313 -1.259219 -1.510406 -1.513125 Z M -1.510406 -1.513125 " transform="matrix(1,0,0,-1,95.569,9.315)"/>
<path style="fill:none;stroke-width:0.59758;stroke-linecap:round;stroke-linejoin:miter;stroke:rgb(0%,0%,0%);stroke-opacity:1;stroke-miterlimit:10;" d="M 4.9065 6.291281 L 14.570562 11.873313 " transform="matrix(1,0,0,-1,80.906,29.053)"/>
<g style="fill:rgb(0%,0%,0%);fill-opacity:1;">
  <use xlink:href="#glyph0-1" x="116.61" y="29.053"/>
</g>
<path style="fill:none;stroke-width:0.59758;stroke-linecap:round;stroke-linejoin:miter;stroke:rgb(0%,0%,0%);stroke-opacity:1;stroke-miterlimit:10;" d="M 24.664312 11.869406 L 34.324469 6.291281 " transform="matrix(1,0,0,-1,80.906,29.053)"/>
<path style="fill:none;stroke-width:0.3985;stroke-linecap:butt;stroke-linejoin:miter;stroke:rgb(0%,0%,0%);stroke-opacity:1;stroke-miterlimit:10;" d="M 134.202812 9.123313 L 162.155937 9.123313 " transform="matrix(1,0,0,-1,-0.57,29.053)"/>
<path style="fill-rule:nonzero;fill:rgb(0%,0%,0%);fill-opacity:1;stroke-width:0.3985;stroke-linecap:butt;stroke-linejoin:round;stroke:rgb(0%,0%,0%);stroke-opacity:1;stroke-miterlimit:10;" d="M 4.444803 0.0011525 L 1.163553 1.313653 L 2.808084 0.0011525 L 1.163553 -1.315254 Z M 4.444803 0.0011525 " transform="matrix(1,0,0,-1,158.87551,19.93084)"/>
<g style="fill:rgb(86.274719%,20.783997%,27.059937%);fill-opacity:1;">
  <use xlink:href="#glyph0-1" x="173.48" y="25.046"/>
</g>
<g style="fill:rgb(0%,0%,0%);fill-opacity:1;">
  <use xlink:href="#glyph0-2" x="192.958" y="13.72"/>
</g>
<path style="fill-rule:nonzero;fill:rgb(0%,0%,0%);fill-opacity:1;stroke-width:0.3985;stroke-linecap:butt;stroke-linejoin:miter;stroke:rgb(0%,0%,0%);stroke-opacity:1;stroke-miterlimit:10;" d="M 0.852563 -0.00140625 C 0.852563 -0.356875 1.137719 -0.642031 1.493188 -0.642031 C 1.848656 -0.642031 2.137719 -0.356875 2.137719 -0.00140625 C 2.137719 0.354063 1.848656 0.643125 1.493188 0.643125 C 1.137719 0.643125 0.852563 0.354063 0.852563 -0.00140625 Z M -2.139625 -0.00140625 C -2.139625 -0.356875 -1.850562 -0.642031 -1.495094 -0.642031 C -1.139625 -0.642031 -0.850562 -0.356875 -0.850562 -0.00140625 C -0.850562 0.354063 -1.139625 0.643125 -1.495094 0.643125 C -1.850562 0.643125 -2.139625 0.354063 -2.139625 -0.00140625 Z M -2.139625 -0.00140625 " transform="matrix(1,0,0,-1,196.624,3.315)"/>
<g style="fill:rgb(0%,0%,0%);fill-opacity:1;">
  <use xlink:href="#glyph2-1" x="201.78" y="5.112"/>
</g>
<path style="fill:none;stroke-width:0.59758;stroke-linecap:round;stroke-linejoin:miter;stroke:rgb(0%,0%,0%);stroke-opacity:1;stroke-miterlimit:10;" d="M 4.909969 6.292094 L 14.570125 11.870219 " transform="matrix(1,0,0,-1,177.008,25.046)"/>
<g style="fill:rgb(0%,0%,0%);fill-opacity:1;">
  <use xlink:href="#glyph0-1" x="181.93" y="33.06"/>
</g>
<path style="fill:none;stroke-width:0.59758;stroke-linecap:round;stroke-linejoin:miter;stroke:rgb(0%,0%,0%);stroke-opacity:1;stroke-miterlimit:10;" d="M 16.824031 9.944438 L 11.245906 0.284281 " transform="matrix(1,0,0,-1,177.008,25.046)"/>
<g style="fill:rgb(0%,0%,0%);fill-opacity:1;">
  <use xlink:href="#glyph0-1" x="212.712" y="25.046"/>
</g>
<path style="fill:none;stroke-width:0.59758;stroke-linecap:round;stroke-linejoin:miter;stroke:rgb(0%,0%,0%);stroke-opacity:1;stroke-miterlimit:10;" d="M 24.663875 11.870219 L 34.324031 6.292094 " transform="matrix(1,0,0,-1,177.008,25.046)"/>
<g style="fill:rgb(0%,0%,0%);fill-opacity:1;">
  <use xlink:href="#glyph1-1" x="226.742" y="22.422"/>
</g>
<g style="fill:rgb(0%,0%,0%);fill-opacity:1;">
  <use xlink:href="#glyph0-2" x="251.428" y="23.39"/>
</g>
<path style="fill-rule:nonzero;fill:rgb(0%,0%,0%);fill-opacity:1;stroke-width:0.3985;stroke-linecap:butt;stroke-linejoin:miter;stroke:rgb(0%,0%,0%);stroke-opacity:1;stroke-miterlimit:10;" d="M -0.852813 0.00009375 C -0.852813 0.355563 -1.137969 0.644625 -1.493438 0.644625 C -1.848906 0.644625 -2.137969 0.355563 -2.137969 0.00009375 C -2.137969 -0.355375 -1.848906 -0.644437 -1.493438 -0.644437 C -1.137969 -0.644437 -0.852813 -0.355375 -0.852813 0.00009375 Z M 2.139375 0.00009375 C 2.139375 0.355563 1.850312 0.644625 1.494844 0.644625 C 1.139375 0.644625 0.850312 0.355563 0.850312 0.00009375 C 0.850312 -0.355375 1.139375 -0.644437 1.494844 -0.644437 C 1.850312 -0.644437 2.139375 -0.355375 2.139375 0.00009375 Z M 2.139375 0.00009375 " transform="matrix(1,0,0,-1,255.095,26.379)"/>
<path style="fill-rule:nonzero;fill:rgb(0%,0%,0%);fill-opacity:1;stroke-width:0.3985;stroke-linecap:butt;stroke-linejoin:miter;stroke:rgb(0%,0%,0%);stroke-opacity:1;stroke-miterlimit:10;" d="M 0.850312 -0.001375 C 0.850312 -0.356844 1.139375 -0.642 1.494844 -0.642 C 1.850312 -0.642 2.139375 -0.356844 2.139375 -0.001375 C 2.139375 0.354094 1.850312 0.643156 1.494844 0.643156 C 1.139375 0.643156 0.850312 0.354094 0.850312 -0.001375 Z M -2.137969 -0.001375 C -2.137969 -0.356844 -1.848906 -0.642 -1.493438 -0.642 C -1.137969 -0.642 -0.852813 -0.356844 -0.852813 -0.001375 C -0.852813 0.354094 -1.137969 0.643156 -1.493438 0.643156 C -1.848906 0.643156 -2.137969 0.354094 -2.137969 -0.001375 Z M -2.137969 -0.001375 " transform="matrix(1,0,0,-1,255.095,13.483)"/>
<path style="fill-rule:nonzero;fill:rgb(0%,0%,0%);fill-opacity:1;stroke-width:0.3985;stroke-linecap:butt;stroke-linejoin:miter;stroke:rgb(0%,0%,0%);stroke-opacity:1;stroke-miterlimit:10;" d="M -0.0015 0.852875 C 0.353969 0.852875 0.643031 1.138031 0.643031 1.4935 C 0.643031 1.848969 0.353969 2.138031 -0.0015 2.138031 C -0.356969 2.138031 -0.642125 1.848969 -0.642125 1.4935 C -0.642125 1.138031 -0.356969 0.852875 -0.0015 0.852875 Z M -0.0015 -2.139312 C 0.353969 -2.139312 0.643031 -1.85025 0.643031 -1.494781 C 0.643031 -1.139312 0.353969 -0.85025 -0.0015 -0.85025 C -0.356969 -0.85025 -0.642125 -1.139312 -0.642125 -1.494781 C -0.642125 -1.85025 -0.356969 -2.139312 -0.0015 -2.139312 Z M -0.0015 -2.139312 " transform="matrix(1,0,0,-1,248.439,19.931)"/>
<g style="fill:rgb(0%,0%,0%);fill-opacity:1;">
  <use xlink:href="#glyph3-1" x="243.768" y="14.782"/>
</g>
<g style="fill:rgb(0%,0%,0%);fill-opacity:1;">
  <use xlink:href="#glyph0-1" x="258.762" y="23.39"/>
</g>
<path style="fill:none;stroke-width:0.59776;stroke-linecap:butt;stroke-linejoin:miter;stroke:rgb(9.803772%,52.938843%,32.939148%);stroke-opacity:1;stroke-miterlimit:10;" d="M -232.677375 20.885031 C -218.696906 28.95925 -199.087531 28.010031 -189.482062 11.373313 " transform="matrix(1,0,0,-1,265.818,29.053)"/>
<path style="fill-rule:nonzero;fill:rgb(9.803772%,52.938843%,32.939148%);fill-opacity:1;stroke-width:0.59776;stroke-linecap:butt;stroke-linejoin:round;stroke:rgb(9.803772%,52.938843%,32.939148%);stroke-opacity:1;stroke-miterlimit:10;" d="M 5.173847 -0.00219922 L 1.742304 1.374614 L 3.465919 0.000573587 L 1.741662 -1.376499 Z M 5.173847 -0.00219922 " transform="matrix(0.5,0.86601,0.86601,-0.5,74.6767,14.80736)"/>
<path style="fill:none;stroke-width:0.59776;stroke-linecap:butt;stroke-linejoin:miter;stroke:rgb(9.803772%,52.938843%,32.939148%);stroke-opacity:1;stroke-miterlimit:10;" d="M -181.423469 -2.587625 C -176.41175 -11.271219 -165.298469 -7.892312 -165.298469 6.181906 " transform="matrix(1,0,0,-1,265.818,29.053)"/>
<path style="fill-rule:nonzero;fill:rgb(9.803772%,52.938843%,32.939148%);fill-opacity:1;stroke-width:0.59776;stroke-linecap:butt;stroke-linejoin:round;stroke:rgb(9.803772%,52.938843%,32.939148%);stroke-opacity:1;stroke-miterlimit:10;" d="M 5.172305 0.00061875 L 1.742618 1.375619 L 3.46918 0.00061875 L 1.742618 -1.374381 Z M 5.172305 0.00061875 " transform="matrix(0,-1,-1,0,100.52015,26.18793)"/>
</g>
</svg>

<?xml version="1.0" encoding="UTF-8"?>
<svg width="265pt" height="37pt" version="1.1" viewBox="0 0 265 37" xmlns="http://www.w3.org/2000/svg" xmlns:xlink="http://www.w3.org/1999/xlink">
<defs>
<symbol id="a" overflow="visible">
<path d="m6.1094 0v-6.9219h-0.89062v3.0312h-3.3906v-3.0312h-0.89062v6.9219h0.89062v-3.2969h3.3906v3.2969z"/>
</symbol>
<symbol id="b" overflow="visible">
<path d="m6.7656-3.4375c0-2.0938-1.4375-3.7031-3.0938-3.7031-1.7031 0-3.1094 1.625-3.1094 3.7031 0 2.1094 1.4688 3.6562 3.0938 3.6562 1.6719 0 3.1094-1.5625 3.1094-3.6562zm-0.89062-0.15625c0 1.9531-1.0625 3.1719-2.2031 3.1719-1.1719 0-2.2188-1.25-2.2188-3.1719 0-1.8125 1.0938-2.9062 2.2031-2.9062 1.1562 0 2.2188 1.125 2.2188 2.9062z"/>
</symbol>
<symbol id="c" overflow="visible">
<path d="m7.1875-2.5c0-0.1875-0.1875-0.1875-0.32812-0.1875h-2.7812v-2.7969c0-0.14062 0-0.32812-0.20312-0.32812s-0.20312 0.1875-0.20312 0.32812v2.7969h-2.7812c-0.14062 0-0.32812 0-0.32812 0.1875 0 0.20312 0.1875 0.20312 0.32812 0.20312h2.7812v2.7969c0 0.14062 0 0.32812 0.20312 0.32812s0.20312-0.1875 0.20312-0.32812v-2.7969h2.7812c0.14062 0 0.32812 0 0.32812-0.20312z"/>
</symbol>
<symbol id="e" overflow="visible">
<path d="m5.6094-1.7344c0-0.1875-0.15625-0.1875-0.25-0.1875h-2.1406v-2.1406c0-0.078125 0-0.25-0.15625-0.25-0.17188 0-0.17188 0.15625-0.17188 0.25v2.1406h-2.1406c-0.09375 0-0.26562 0-0.26562 0.17188s0.15625 0.17188 0.26562 0.17188h2.1406v2.1406c0 0.09375 0 0.26562 0.15625 0.26562 0.17188 0 0.17188-0.17188 0.17188-0.26562v-2.1406h2.1406c0.09375 0 0.25 0 0.25-0.15625z"/>
</symbol>
<symbol id="d" overflow="visible">
<path d="m5.4688-1.7344c0-0.1875-0.17188-0.1875-0.26562-0.1875h-4.1875c-0.10938 0-0.26562 0-0.26562 0.1875 0 0.15625 0.17188 0.15625 0.26562 0.15625h4.1875c0.09375 0 0.26562 0 0.26562-0.15625z"/>
</symbol>
</defs>
<g>
<use x="-0.57" y="29.053" xlink:href="#a"/>
<use x="18.907" y="17.728" xlink:href="#b"/>
</g>
<path transform="matrix(1,0,0,-1,27.527,9.315)" d="m0.60191-0.60297c-0.25-0.25-0.25-0.65625 0-0.91016 0.25-0.25 0.66016-0.25 0.91016 0 0.25 0.25391 0.25 0.66016 0 0.91016-0.25 0.25391-0.66016 0.25391-0.91016 0zm-2.1133 2.1133c-0.25-0.25-0.25-0.65625 0-0.91016 0.25-0.25 0.66016-0.25 0.91016 0 0.25 0.25391 0.25 0.66016 0 0.91016-0.25 0.25391-0.66016 0.25391-0.91016 0z" stroke="#000" stroke-miterlimit="10" stroke-width=".3985"/>
<path transform="matrix(1,0,0,-1,17.621,9.315)" d="m0.60166 0.60016c0.25-0.25 0.66016-0.25 0.91016 0 0.25 0.25391 0.25 0.66016 0 0.91016-0.25 0.25391-0.66016 0.25391-0.91016 0-0.25-0.25-0.25-0.65625 0-0.91016zm-2.1133-2.1133c0.25-0.25 0.66016-0.25 0.91016 0 0.25 0.25391 0.25 0.66016 0 0.91016-0.25 0.25391-0.66016 0.25391-0.91016 0-0.25-0.25-0.25-0.65625 0-0.91016z" stroke="#000" stroke-miterlimit="10" stroke-width=".3985"/>
<path transform="matrix(1,0,0,-1,2.958,29.053)" d="m4.9092 6.2913 9.6602 5.582" fill="none" stroke="#000" stroke-linecap="round" stroke-miterlimit="10" stroke-width=".59758"/>
<g>
<use x="38.662" y="29.053" xlink:href="#a"/>
</g>
<path transform="matrix(1,0,0,-1,2.958,29.053)" d="m24.663 11.869 9.6602-5.5781" fill="none" stroke="#000" stroke-linecap="round" stroke-miterlimit="10" stroke-width=".59758"/>
<g>
<use x="57.674" y="22.422" xlink:href="#c"/>
</g>
<g fill="#dc3445">
<use x="77.378" y="29.053" xlink:href="#a"/>
</g>
<g>
<use x="96.856" y="17.728" xlink:href="#b"/>
</g>
<path transform="matrix(1 0 0 -1 105.48 9.315)" d="m0.60312-0.60297c-0.25391-0.25-0.25391-0.65625 0-0.91016 0.25-0.25 0.65625-0.25 0.91016 0 0.25 0.25391 0.25 0.66016 0 0.91016-0.25391 0.25391-0.66016 0.25391-0.91016 0zm-2.1133 2.1133c-0.25391-0.25-0.25391-0.65625 0-0.91016 0.25-0.25 0.65625-0.25 0.91016 0 0.25 0.25391 0.25 0.66016 0 0.91016-0.25391 0.25391-0.66016 0.25391-0.91016 0z" stroke="#000" stroke-miterlimit="10" stroke-width=".3985"/>
<path transform="matrix(1,0,0,-1,95.569,9.315)" d="m0.60288 0.60016c0.25-0.25 0.65625-0.25 0.91016 0 0.25 0.25391 0.25 0.66016 0 0.91016-0.25391 0.25391-0.66016 0.25391-0.91016 0-0.25391-0.25-0.25391-0.65625 0-0.91016zm-2.1133-2.1133c0.25-0.25 0.65625-0.25 0.91016 0 0.25 0.25391 0.25 0.66016 0 0.91016-0.25391 0.25391-0.66016 0.25391-0.91016 0-0.25391-0.25-0.25391-0.65625 0-0.91016z" stroke="#000" stroke-miterlimit="10" stroke-width=".3985"/>
<path transform="matrix(1,0,0,-1,80.906,29.053)" d="m4.9065 6.2913 9.6641 5.582" fill="none" stroke="#000" stroke-linecap="round" stroke-miterlimit="10" stroke-width=".59758"/>
<g>
<use x="116.61" y="29.053" xlink:href="#a"/>
</g>
<path transform="matrix(1,0,0,-1,80.906,29.053)" d="m24.664 11.869 9.6602-5.5781" fill="none" stroke="#000" stroke-linecap="round" stroke-miterlimit="10" stroke-width=".59758"/>
<path transform="matrix(1 0 0 -1 -.57 29.053)" d="m134.2 9.1233h27.953" fill="none" stroke="#000" stroke-miterlimit="10" stroke-width=".3985"/>
<path transform="matrix(1 0 0 -1 158.88 19.931)" d="m4.4448 0.0011525-3.2812 1.3125 1.6445-1.3125-1.6445-1.3164z" stroke="#000" stroke-linejoin="round" stroke-miterlimit="10" stroke-width=".3985"/>
<g fill="#dc3445">
<use x="173.48" y="25.046" xlink:href="#a"/>
</g>
<g>
<use x="192.958" y="13.72" xlink:href="#b"/>
</g>
<path transform="matrix(1 0 0 -1 196.62 3.315)" d="m0.85256-0.0014062c0-0.35547 0.28516-0.64062 0.64062-0.64062 0.35547 0 0.64453 0.28516 0.64453 0.64062 0 0.35547-0.28906 0.64453-0.64453 0.64453-0.35547 0-0.64062-0.28906-0.64062-0.64453zm-2.9922 0c0-0.35547 0.28906-0.64062 0.64453-0.64062 0.35547 0 0.64453 0.28516 0.64453 0.64062 0 0.35547-0.28906 0.64453-0.64453 0.64453-0.35547 0-0.64453-0.28906-0.64453-0.64453z" stroke="#000" stroke-miterlimit="10" stroke-width=".3985"/>
<g>
<use x="201.78" y="5.112" xlink:href="#e"/>
</g>
<path transform="matrix(1 0 0 -1 177.01 25.046)" d="m4.91 6.2921 9.6602 5.5781" fill="none" stroke="#000" stroke-linecap="round" stroke-miterlimit="10" stroke-width=".59758"/>
<g>
<use x="181.93" y="33.06" xlink:href="#a"/>
</g>
<path transform="matrix(1 0 0 -1 177.01 25.046)" d="m16.824 9.9444-5.5781-9.6602" fill="none" stroke="#000" stroke-linecap="round" stroke-miterlimit="10" stroke-width=".59758"/>
<g>
<use x="212.712" y="25.046" xlink:href="#a"/>
</g>
<path transform="matrix(1 0 0 -1 177.01 25.046)" d="m24.664 11.87 9.6602-5.5781" fill="none" stroke="#000" stroke-linecap="round" stroke-miterlimit="10" stroke-width=".59758"/>
<g>
<use x="226.742" y="22.422" xlink:href="#c"/>
<use x="251.428" y="23.39" xlink:href="#b"/>
</g>
<path transform="matrix(1 0 0 -1 255.1 26.379)" d="m-0.85281 9.375e-5c0 0.35547-0.28516 0.64453-0.64062 0.64453-0.35547 0-0.64453-0.28906-0.64453-0.64453 0-0.35547 0.28906-0.64453 0.64453-0.64453 0.35547 0 0.64062 0.28906 0.64062 0.64453zm2.9922 0c0 0.35547-0.28906 0.64453-0.64453 0.64453-0.35547 0-0.64453-0.28906-0.64453-0.64453 0-0.35547 0.28906-0.64453 0.64453-0.64453 0.35547 0 0.64453 0.28906 0.64453 0.64453z" stroke="#000" stroke-miterlimit="10" stroke-width=".3985"/>
<path transform="matrix(1 0 0 -1 255.1 13.483)" d="m0.85031-0.001375c0-0.35547 0.28906-0.64062 0.64453-0.64062 0.35547 0 0.64453 0.28516 0.64453 0.64062s-0.28906 0.64453-0.64453 0.64453c-0.35547 0-0.64453-0.28906-0.64453-0.64453zm-2.9883 0c0-0.35547 0.28906-0.64062 0.64453-0.64062 0.35547 0 0.64062 0.28516 0.64062 0.64062s-0.28516 0.64453-0.64062 0.64453c-0.35547 0-0.64453-0.28906-0.64453-0.64453z" stroke="#000" stroke-miterlimit="10" stroke-width=".3985"/>
<path transform="matrix(1 0 0 -1 248.44 19.931)" d="m-0.0015 0.85288c0.35547 0 0.64453 0.28516 0.64453 0.64062s-0.28906 0.64453-0.64453 0.64453-0.64062-0.28906-0.64062-0.64453 0.28516-0.64062 0.64062-0.64062zm0-2.9922c0.35547 0 0.64453 0.28906 0.64453 0.64453s-0.28906 0.64453-0.64453 0.64453-0.64062-0.28906-0.64062-0.64453 0.28516-0.64453 0.64062-0.64453z" stroke="#000" stroke-miterlimit="10" stroke-width=".3985"/>
<g>
<use x="243.768" y="14.782" xlink:href="#d"/>
<use x="258.762" y="23.39" xlink:href="#a"/>
</g>
<path transform="matrix(1 0 0 -1 265.82 29.053)" d="m-232.68 20.885c13.98 8.0742 33.59 7.125 43.195-9.5117" fill="none" stroke="#188653" stroke-miterlimit="10" stroke-width=".59776"/>
<path transform="matrix(.5 .86601 .86601 -.5 74.677 14.807)" d="m5.1738-0.0021992-3.4315 1.3768 1.7236-1.374-1.7243-1.3771z" fill="#188653" stroke="#188653" stroke-linejoin="round" stroke-miterlimit="10" stroke-width=".59776"/>
<path transform="matrix(1 0 0 -1 265.82 29.053)" d="m-181.42-2.5876c5.0117-8.6836 16.125-5.3047 16.125 8.7695" fill="none" stroke="#188653" stroke-miterlimit="10" stroke-width=".59776"/>
<path transform="matrix(0 -1 -1 0 100.52 26.188)" d="m5.1723 6.1875e-4 -3.4297 1.375 1.7266-1.375-1.7266-1.375z" fill="#188653" stroke="#188653" stroke-linejoin="round" stroke-miterlimit="10" stroke-width=".59776"/>
</svg>
